X: 17327
T: Hidden Smile, The
R: jig
M: 6/8
K: Dmajor
eee e2g|fed edB|eee gfe|fed edB|
AAA ABd|edB gfd|eee gfe|1 fed e3:|2 fed fga||
|:b3 bag|aaa aga|bag bag|bgb agf|
ggg gfe|fed edB|eee gfe|fed ega:|

